!!!SOCIAL_FUNCTION:	songs connected with girls' adolescence ceremony
!!!PDT:	1958
!!!OTL: No_44_The_Two_Girls_on_the_Bridge.krn
!!!REG: Northern California
!!!LANG: Non-Tone
!!!LING_GROUP: Penutian
**kern
*staff1
=1-
=
*clefF4
*k[b-e-a-d-g-]
*M2/4
4d-\
8c\L
(16c\L
16d-\JJ)
=2
4c\
8B-\L
8B-\J
=3
8B-\L
8c\J
8d-\L
8d-\J
=4
4c\
8c\L
8c\J
=5
4d-\
8c\L
16c\L
16d-\JJ
=6
4c\
8B-\L
8B-\J
=7
8B-\L
8c\J
8d-\L
8d-\J
=8
4c\
8c\
8r
=9:|!
4d-\
8e-\L
8d-\J
=10
(8d-\L
8c\J)
8B-\L
8B-\J
=11
8B-\L
8c\J
8d-\L
8d-\J
=12
4c\
4c\
==
*-
